static/img/kroki/6a8a8031fda0d71eb77f56dd59d806eb.svg

<?xml version="1.0" encoding="us-ascii" standalone="no"?><svg xmlns="http://www.w3.org/2000/svg" xmlns:xlink="http://www.w3.org/1999/xlink" contentStyleType="text/css" height="152px" preserveAspectRatio="none" style="width:503px;height:152px;" version="1.1" viewBox="0 0 503 152" width="503px" zoomAndPan="magnify"><defs/><g><!--class aws_elasticache_cache_cluster--><g id="elem_aws_elasticache_cache_cluster"><rect codeLine="23" fill="#3D176E" height="39.7891" id="aws_elasticache_cache_cluster" rx="2.5" ry="2.5" style="stroke:#000D19;stroke-width:0.5;" width="297" x="7" y="106.79"/><ellipse cx="22" cy="126.6845" fill="#ADD1B2" rx="11" ry="11" style="stroke:#181818;stroke-width:1.0;"/><path d="M24.9688,132.3252 Q24.3906,132.622 23.75,132.7627 Q23.1094,132.9189 22.4063,132.9189 Q19.9063,132.9189 18.5781,131.2783 Q17.2656,129.622 17.2656,126.497 Q17.2656,123.372 18.5781,121.7158 Q19.9063,120.0595 22.4063,120.0595 Q23.1094,120.0595 23.75,120.2158 Q24.4063,120.372 24.9688,120.6689 L24.9688,123.3877 Q24.3438,122.8095 23.75,122.5439 Q23.1563,122.2627 22.5313,122.2627 Q21.1875,122.2627 20.5,123.3408 Q19.8125,124.4033 19.8125,126.497 Q19.8125,128.5908 20.5,129.6689 Q21.1875,130.7314 22.5313,130.7314 Q23.1563,130.7314 23.75,130.4658 Q24.3438,130.1845 24.9688,129.6064 L24.9688,132.3252 Z " fill="#000000"/><text fill="#D9B8FF" font-family="Helvetica" font-size="17" lengthAdjust="spacing" textLength="255" x="41" y="132.5698">aws_elasticache_cache_cluster</text></g><!--class aws_elasticache_replication_group--><g id="elem_aws_elasticache_replication_group"><rect codeLine="26" fill="#3D176E" height="39.7891" id="aws_elasticache_replication_group" rx="2.5" ry="2.5" style="stroke:#000D19;stroke-width:0.5;" width="330" x="121.5" y="7"/><ellipse cx="136.5" cy="26.8945" fill="#ADD1B2" rx="11" ry="11" style="stroke:#181818;stroke-width:1.0;"/><path d="M139.4688,32.5352 Q138.8906,32.832 138.25,32.9727 Q137.6094,33.1289 136.9063,33.1289 Q134.4063,33.1289 133.0781,31.4883 Q131.7656,29.832 131.7656,26.707 Q131.7656,23.582 133.0781,21.9258 Q134.4063,20.2695 136.9063,20.2695 Q137.6094,20.2695 138.25,20.4258 Q138.9063,20.582 139.4688,20.8789 L139.4688,23.5977 Q138.8438,23.0195 138.25,22.7539 Q137.6563,22.4727 137.0313,22.4727 Q135.6875,22.4727 135,23.5508 Q134.3125,24.6133 134.3125,26.707 Q134.3125,28.8008 135,29.8789 Q135.6875,30.9414 137.0313,30.9414 Q137.6563,30.9414 138.25,30.6758 Q138.8438,30.3945 139.4688,29.8164 L139.4688,32.5352 Z " fill="#000000"/><text fill="#D9B8FF" font-family="Helvetica" font-size="17" lengthAdjust="spacing" textLength="288" x="155.5" y="32.7798">aws_elasticache_replication_group</text></g><!--class aws_kms_key--><g id="elem_aws_kms_key"><rect codeLine="29" fill="#3D176E" height="39.7891" id="aws_kms_key" rx="2.5" ry="2.5" style="stroke:#000D19;stroke-width:0.5;" width="158" x="338.5" y="106.79"/><ellipse cx="353.5" cy="126.6845" fill="#ADD1B2" rx="11" ry="11" style="stroke:#181818;stroke-width:1.0;"/><path d="M356.4688,132.3252 Q355.8906,132.622 355.25,132.7627 Q354.6094,132.9189 353.9063,132.9189 Q351.4063,132.9189 350.0781,131.2783 Q348.7656,129.622 348.7656,126.497 Q348.7656,123.372 350.0781,121.7158 Q351.4063,120.0595 353.9063,120.0595 Q354.6094,120.0595 355.25,120.2158 Q355.9063,120.372 356.4688,120.6689 L356.4688,123.3877 Q355.8438,122.8095 355.25,122.5439 Q354.6563,122.2627 354.0313,122.2627 Q352.6875,122.2627 352,123.3408 Q351.3125,124.4033 351.3125,126.497 Q351.3125,128.5908 352,129.6689 Q352.6875,130.7314 354.0313,130.7314 Q354.6563,130.7314 355.25,130.4658 Q355.8438,130.1845 356.4688,129.6064 L356.4688,132.3252 Z " fill="#000000"/><text fill="#D9B8FF" font-family="Helvetica" font-size="17" lengthAdjust="spacing" textLength="116" x="372.5" y="132.5698">aws_kms_key</text></g><!--link aws_elasticache_replication_group to aws_elasticache_cache_cluster--><g id="link_aws_elasticache_replication_group_aws_elasticache_cache_cluster"><path codeLine="32" d="M260.62,47.22 C237.65,64.36 209.0873,85.6797 186.1373,102.8197 " fill="none" id="aws_elasticache_replication_group-to-aws_elasticache_cache_cluster" style="stroke:#1A83AF;stroke-width:2.0;"/><polygon fill="#1A83AF" points="181.33,106.41,190.9344,104.2294,185.3361,103.4181,186.1474,97.8197,181.33,106.41" style="stroke:#1A83AF;stroke-width:2.0;"/></g><!--link aws_elasticache_replication_group to aws_kms_key--><g id="link_aws_elasticache_replication_group_aws_kms_key"><path codeLine="33" d="M312.38,47.22 C335.35,64.36 363.9127,85.6797 386.8627,102.8197 " fill="none" id="aws_elasticache_replication_group-to-aws_kms_key" style="stroke:#1A83AF;stroke-width:2.0;"/><polygon fill="#1A83AF" points="391.67,106.41,386.8526,97.8197,387.6639,103.4181,382.0656,104.2294,391.67,106.41" style="stroke:#1A83AF;stroke-width:2.0;"/></g><!--SRC=[dP1DIyD048Rl-HKBEHSIYpQv2B5Gz5B4UXCfs-niisG_mkpM4CN_RcAhh4cJWeSioyoJTvxPGZ0We2hN40Lg1sW3MmfTKQIAP8YcNXffa8ISKpvVz9ihezr5O4qLa7kGR-14Jll4So7oKeErvCfhtT6ytACvQ7QCTqYrRLkWdKSj9RKsSmx5xk30as7fBk6yJ_P3mpcB5pSmm0mom1CIHH6BqpvoSTJath_4Hhm3YVr7Mni70yt1Y6zgqh8ZFCd1eZ_zKST7ofZGUtBjrPwEJgW1_zGt1MMcxcXEfVN7M0S8nZKLB0TRGPemlZWBFup1GTuz7Q6rtK9xwvpp0hQdKnww2F8H19yZ848bswiJHc-x_AeFbwhze3cMB_yzUmdZB9bdgzVPxRJLVy9ECi4N]--></g></svg>

<svg xmlns="http://www.w3.org/2000/svg" width="503" height="152" viewBox="0 0 503 152"><rect width="297" height="39.789" x="7" y="106.79" fill="#3D176E" rx="2.5" ry="2.5" style="stroke:#000d19;stroke-width:.5"/><circle cx="22" cy="126.684" r="11" fill="#ADD1B2" style="stroke:#181818;stroke-width:1"/><path d="M24.969 132.325q-.578.297-1.219.438-.64.156-1.344.156-2.5 0-3.828-1.64-1.312-1.657-1.312-4.782t1.312-4.781q1.328-1.656 3.828-1.656.703 0 1.344.156.656.156 1.219.453v2.719q-.625-.579-1.219-.844-.594-.281-1.219-.281-1.343 0-2.031 1.078-.687 1.062-.687 3.156t.687 3.172q.688 1.062 2.031 1.062.625 0 1.219-.265.594-.281 1.219-.86z"/><text x="41" y="132.57" fill="#D9B8FF" font-family="Helvetica" font-size="17" textLength="255">aws_elasticache_cache_cluster</text><rect width="330" height="39.789" x="121.5" y="7" fill="#3D176E" rx="2.5" ry="2.5" style="stroke:#000d19;stroke-width:.5"/><circle cx="136.5" cy="26.895" r="11" fill="#ADD1B2" style="stroke:#181818;stroke-width:1"/><path d="M139.469 32.535q-.578.297-1.219.438-.64.156-1.344.156-2.5 0-3.828-1.64-1.312-1.657-1.312-4.782t1.312-4.781q1.328-1.656 3.828-1.656.703 0 1.344.156.656.156 1.219.453v2.719q-.625-.578-1.219-.844-.594-.281-1.219-.281-1.344 0-2.031 1.078-.687 1.062-.687 3.156t.687 3.172q.688 1.062 2.031 1.062.625 0 1.219-.265.594-.281 1.219-.86z"/><text x="155.5" y="32.78" fill="#D9B8FF" font-family="Helvetica" font-size="17" textLength="288">aws_elasticache_replication_group</text><rect width="158" height="39.789" x="338.5" y="106.79" fill="#3D176E" rx="2.5" ry="2.5" style="stroke:#000d19;stroke-width:.5"/><circle cx="353.5" cy="126.684" r="11" fill="#ADD1B2" style="stroke:#181818;stroke-width:1"/><path d="M356.469 132.325q-.578.297-1.219.438-.64.156-1.344.156-2.5 0-3.828-1.64-1.312-1.657-1.312-4.782t1.312-4.781q1.328-1.656 3.828-1.656.703 0 1.344.156.656.156 1.219.453v2.719q-.625-.579-1.219-.844-.594-.281-1.219-.281-1.344 0-2.031 1.078-.687 1.062-.687 3.156t.687 3.172q.688 1.062 2.031 1.062.625 0 1.219-.265.594-.281 1.219-.86z"/><text x="372.5" y="132.57" fill="#D9B8FF" font-family="Helvetica" font-size="17" textLength="116">aws_kms_key</text><path fill="none" d="M260.62 47.22c-22.97 17.14-51.533 38.46-74.483 55.6" style="stroke:#1a83af;stroke-width:2"/><path fill="#1A83AF" d="m181.33 106.41 9.604-2.18-5.598-.812.811-5.598z" style="stroke:#1a83af;stroke-width:2"/><path fill="none" d="M312.38 47.22c22.97 17.14 51.533 38.46 74.483 55.6" style="stroke:#1a83af;stroke-width:2"/><path fill="#1A83AF" d="m391.67 106.41-4.817-8.59.81 5.598-5.597.811z" style="stroke:#1a83af;stroke-width:2"/></svg>
